(.../wes/Drive/eagle/ulp/pcb-gcode.ulp)
(Copyright 2005 - 2012 by John Johnson)
(See readme.txt for licensing terms.)
(This file generated from the board:)
(.../Eletronica/Drivers/driver1.brd)
(Current profile is .../Drive/eagle/ulp/profiles/mach.pp  )
(This file generated 9/26/15 00:41)
(Settings from pcb-machine.h)
(  Tool Size)
(0.1000  )
(Z Axis Settings)
(  High     Up        Down     Drill)
(15.0000 	2.0000  	-0.2000 	-2.0000 )
(spindle on time = 3.0000)
(milling depth = -0.2000)
(text depth = -0.1270)
(tool change at 0.0000  0.0000  40.0000 )
(feed rate xy = F500   )
(feed rate z  = F200   )
(Settings from pcb-defaults.h)
(isolate min = 0.0200)
(isolate max = 10.0000)
(isolate step = 0.0500)
(Generated top outlines, top drill, )
(Unit of measure: mm)
(Metric Mode)
G21
(Absolute Coordinates)
G90
G00 X0.0000  Y0.0000  
M03
G04 P3.000000
G00 Z2.0000  
G00 X35.7484 Y5.4496  
G01 Z-0.2000 F200   
G01 X35.3147 Y5.2700  F500   
G01 X34.8453 Y5.2700  
G01 X34.4116 Y5.4496  
G01 X34.0796 Y5.7816  
G01 X33.9000 Y6.2153  
G01 X33.9000 Y6.6847  
G01 X34.0796 Y7.1184  
G01 X34.4116 Y7.4504  
G01 X34.8453 Y7.6300  
G01 X35.3147 Y7.6300  
G01 X35.7484 Y7.4504  
G01 X36.0804 Y7.1184  
G01 X36.2600 Y6.6847  
G01 X36.2600 Y6.2153  
G01 X36.0804 Y5.7816  
G01 X35.7484 Y5.4496  
G00 Z2.0000  
G00 X36.0000 Y6.3594  
G01 Z-0.2000 F200   
G01 X36.0000 Y6.5406  F500   
G01 X35.9646 Y6.7184  
G01 X35.8953 Y6.8858  
G01 X35.7946 Y7.0365  
G01 X35.6665 Y7.1646  
G01 X35.5158 Y7.2653  
G01 X35.3484 Y7.3346  
G01 X35.1706 Y7.3700  
G01 X34.9894 Y7.3700  
G01 X34.8116 Y7.3346  
G01 X34.6442 Y7.2653  
G01 X34.4935 Y7.1646  
G01 X34.3654 Y7.0365  
G01 X34.2647 Y6.8858  
G01 X34.1954 Y6.7184  
G01 X34.1600 Y6.5406  
G01 X34.1600 Y6.3594  
G01 X34.1954 Y6.1816  
G01 X34.2647 Y6.0142  
G01 X34.3654 Y5.8635  
G01 X34.4935 Y5.7354  
G01 X34.6442 Y5.6347  
G01 X34.8116 Y5.5654  
G01 X34.9894 Y5.5300  
G01 X35.1706 Y5.5300  
G01 X35.3484 Y5.5654  
G01 X35.5158 Y5.6347  
G01 X35.6665 Y5.7354  
G01 X35.7946 Y5.8635  
G01 X35.8953 Y6.0142  
G01 X35.9646 Y6.1816  
G01 X36.0000 Y6.3594  
G00 Z2.0000  
G00 X45.2563 Y17.2300 
G01 Z-0.2000 F200   
G01 X44.3600 Y18.1263 F500   
G01 X44.3600 Y19.3937 
G01 X45.2563 Y20.2900 
G01 X46.5237 Y20.2900 
G01 X47.4200 Y19.3937 
G01 X47.4200 Y18.1263 
G01 X46.5237 Y17.2300 
G01 X45.2563 Y17.2300 
G00 Z2.0000  
G00 X47.1600 Y18.2340 
G01 Z-0.2000 F200   
G01 X47.1600 Y19.2860 F500   
G01 X46.4160 Y20.0300 
G01 X45.3640 Y20.0300 
G01 X44.6200 Y19.2860 
G01 X44.6200 Y18.2340 
G01 X45.3640 Y17.4900 
G01 X46.4160 Y17.4900 
G01 X47.1600 Y18.2340 
G00 Z2.0000  
G00 X44.6063 Y77.4300 
G01 Z-0.2000 F200   
G01 X43.7100 Y78.3263 F500   
G01 X43.7100 Y79.5937 
G01 X44.6063 Y80.4900 
G01 X45.8737 Y80.4900 
G01 X46.7700 Y79.5937 
G01 X46.7700 Y78.3263 
G01 X45.8737 Y77.4300 
G01 X44.6063 Y77.4300 
G00 Z2.0000  
G00 X46.5100 Y78.4340 
G01 Z-0.2000 F200   
G01 X46.5100 Y79.4860 F500   
G01 X45.7660 Y80.2300 
G01 X44.7140 Y80.2300 
G01 X43.9700 Y79.4860 
G01 X43.9700 Y78.4340 
G01 X44.7140 Y77.6900 
G01 X45.7660 Y77.6900 
G01 X46.5100 Y78.4340 
G00 Z2.0000  
G00 X26.6063 Y77.4300 
G01 Z-0.2000 F200   
G01 X25.7100 Y78.3263 F500   
G01 X25.7100 Y79.5937 
G01 X26.6063 Y80.4900 
G01 X27.8737 Y80.4900 
G01 X28.7700 Y79.5937 
G01 X28.7700 Y78.3263 
G01 X27.8737 Y77.4300 
G01 X26.6063 Y77.4300 
G00 Z2.0000  
G00 X28.5100 Y78.4340 
G01 Z-0.2000 F200   
G01 X28.5100 Y79.4860 F500   
G01 X27.7660 Y80.2300 
G01 X26.7140 Y80.2300 
G01 X25.9700 Y79.4860 
G01 X25.9700 Y78.4340 
G01 X26.7140 Y77.6900 
G01 X27.7660 Y77.6900 
G01 X28.5100 Y78.4340 
G00 Z2.0000  
G00 X20.0560 Y108.5242 
G01 Z-0.2000 F200   
G01 X20.0685 Y108.5710 F500   
G01 X20.0928 Y108.6130 
G01 X20.1270 Y108.6472 
G01 X20.1690 Y108.6715 
G01 X20.2158 Y108.6840 
G01 X20.4200 Y108.6840 
G01 X20.4200 Y108.5700 
G01 X20.2261 Y108.5700 
G01 X20.2003 Y108.5593 
G01 X20.1807 Y108.5397 
G01 X20.1700 Y108.5139 
G01 X20.1700 Y108.2700 
G01 X20.0560 Y108.2700 
G01 X20.0560 Y108.5242 
G00 Z2.0000  
G00 X49.3838 Y92.2445 
G01 Z-0.2000 F200   
G01 X48.7255 Y91.5862 F500   
G01 X48.5840 Y91.5862 
G01 X48.5840 Y91.7002 
G01 X48.6783 Y91.7002 
G01 X49.2698 Y92.2917 
G01 X49.2698 Y92.3860 
G01 X49.3838 Y92.3860 
G01 X49.3838 Y92.2445 
G00 Z2.0000  
G00 X49.3838 Y94.7845 
G01 Z-0.2000 F200   
G01 X48.6909 Y94.0916 F500   
G01 X48.6609 Y94.0192 
G01 X48.6609 Y93.9408 
G01 X48.6909 Y93.8684 
G01 X48.7463 Y93.8130 
G01 X49.3838 Y93.1755 
G01 X49.3838 Y93.0340 
G01 X49.2698 Y93.0340 
G01 X49.2698 Y93.1283 
G01 X48.6783 Y93.7198 
G01 X48.5840 Y93.7198 
G01 X48.5840 Y94.2402 
G01 X48.6783 Y94.2402 
G01 X49.2698 Y94.8317 
G01 X49.2698 Y94.9260 
G01 X49.3838 Y94.9260 
G01 X49.3838 Y94.7845 
G00 Z2.0000  
G00 X49.3838 Y97.3245 
G01 Z-0.2000 F200   
G01 X48.6909 Y96.6316 F500   
G01 X48.6609 Y96.5592 
G01 X48.6609 Y96.4808 
G01 X48.6909 Y96.4084 
G01 X48.7463 Y96.3530 
G01 X49.3838 Y95.7155 
G01 X49.3838 Y95.5740 
G01 X49.2698 Y95.5740 
G01 X49.2698 Y95.6683 
G01 X48.6783 Y96.2598 
G01 X48.5840 Y96.2598 
G01 X48.5840 Y96.7802 
G01 X48.6783 Y96.7802 
G01 X49.2698 Y97.3717 
G01 X49.2698 Y97.4660 
G01 X49.3838 Y97.4660 
G01 X49.3838 Y97.3245 
G00 Z2.0000  
G00 X36.5060 Y94.3040 
G01 Z-0.2000 F200   
G01 X36.3920 Y94.3040 F500   
G01 X36.3920 Y94.3246 
G01 X35.9046 Y94.8120 
G01 X35.8840 Y94.8120 
G01 X35.8840 Y94.9260 
G01 X35.9518 Y94.9260 
G01 X36.5060 Y94.3718 
G01 X36.5060 Y94.3040 
G00 Z2.0000  
G00 X36.5060 Y93.5882 
G01 Z-0.2000 F200   
G01 X35.9518 Y93.0340 F500   
G01 X35.8840 Y93.0340 
G01 X35.8840 Y93.1480 
G01 X35.9046 Y93.1480 
G01 X36.3920 Y93.6354 
G01 X36.3920 Y93.6560 
G01 X36.5060 Y93.6560 
G01 X36.5060 Y93.5882 
G00 Z2.0000  
G00 X35.1682 Y93.0340 
G01 Z-0.2000 F200   
G01 X34.6140 Y93.5882 F500   
G01 X34.6140 Y93.6560 
G01 X34.7280 Y93.6560 
G01 X34.7280 Y93.6354 
G01 X35.2154 Y93.1480 
G01 X35.2360 Y93.1480 
G01 X35.2360 Y93.0340 
G01 X35.1682 Y93.0340 
G00 Z2.0000  
G00 X34.6140 Y94.3718 
G01 Z-0.2000 F200   
G01 X35.1682 Y94.9260 F500   
G01 X35.2360 Y94.9260 
G01 X35.2360 Y94.8120 
G01 X35.2154 Y94.8120 
G01 X34.7280 Y94.3246 
G01 X34.7280 Y94.3040 
G01 X34.6140 Y94.3040 
G01 X34.6140 Y94.3718 
G00 Z2.0000  
G00 X36.9342 Y108.6840 
G01 Z-0.2000 F200   
G01 X36.9810 Y108.6715 F500   
G01 X37.0230 Y108.6472 
G01 X37.0572 Y108.6130 
G01 X37.0815 Y108.5710 
G01 X37.0940 Y108.5242 
G01 X37.0940 Y108.2700 
G01 X36.9800 Y108.2700 
G01 X36.9800 Y108.5139 
G01 X36.9693 Y108.5397 
G01 X36.9496 Y108.5593 
G01 X36.9239 Y108.5700 
G01 X36.7300 Y108.5700 
G01 X36.7300 Y108.6840 
G01 X36.9342 Y108.6840 
G00 Z2.0000  
G00 X37.0940 Y107.3758 
G01 Z-0.2000 F200   
G01 X37.0815 Y107.3290 F500   
G01 X37.0572 Y107.2870 
G01 X37.0230 Y107.2528 
G01 X36.9810 Y107.2285 
G01 X36.9342 Y107.2160 
G01 X36.7300 Y107.2160 
G01 X36.7300 Y107.3300 
G01 X36.9239 Y107.3300 
G01 X36.9496 Y107.3407 
G01 X36.9693 Y107.3603 
G01 X36.9800 Y107.3861 
G01 X36.9800 Y107.6300 
G01 X37.0940 Y107.6300 
G01 X37.0940 Y107.3758 
G00 Z2.0000  
G00 X23.0767 Y112.1500 
G01 Z-0.2000 F200   
G01 X21.8033 Y112.1500 F500   
G01 X21.7570 Y112.1963 
G01 X21.7016 Y112.2517 
G01 X21.6510 Y112.2727 
G01 X21.6292 Y112.2817 
G01 X21.5508 Y112.2817 
G01 X21.4784 Y112.2517 
G01 X21.3767 Y112.1500 
G01 X20.1033 Y112.1500 
G01 X19.9100 Y112.3433 
G01 X19.9100 Y113.7167 
G01 X20.1033 Y113.9100 
G01 X20.1252 Y113.9100 
G01 X20.1976 Y113.9400 
G01 X20.2530 Y113.9954 
G01 X20.2830 Y114.0678 
G01 X20.2830 Y114.8109 
G01 X20.3526 Y114.9789 
G01 X21.2026 Y115.8289 
G01 X21.3311 Y115.9574 
G01 X21.4991 Y116.0270 
G01 X36.9209 Y116.0270 
G01 X37.0889 Y115.9574 
G01 X38.6640 Y114.3822 
G01 X38.7364 Y114.3523 
G01 X38.8148 Y114.3523 
G01 X38.8872 Y114.3822 
G01 X39.1174 Y114.4776 
G01 X39.6226 Y114.4776 
G01 X40.0893 Y114.2843 
G01 X40.4465 Y113.9271 
G01 X40.5634 Y113.6448 
G01 X40.5934 Y113.5724 
G01 X40.6480 Y113.5178 
G01 X40.7212 Y113.4870 
G01 X42.0009 Y113.4870 
G01 X42.1689 Y113.4174 
G01 X42.2974 Y113.2889 
G01 X42.3528 Y113.2334 
G01 X45.9789 Y109.6074 
G01 X46.1074 Y109.4789 
G01 X46.1628 Y109.4234 
G01 X51.0589 Y104.5274 
G01 X51.1874 Y104.3989 
G01 X51.2570 Y104.2309 
G01 X51.2570 Y101.5091 
G01 X51.1874 Y101.3411 
G01 X49.9174 Y100.0711 
G01 X49.7889 Y99.9426 
G01 X49.5831 Y99.8573 
G01 X49.5277 Y99.8019 
G01 X48.7941 Y99.0684 
G01 X48.7641 Y98.9959 
G01 X48.7641 Y98.9176 
G01 X48.7941 Y98.8452 
G01 X48.8495 Y98.7897 
G01 X49.3838 Y98.2555 
G01 X49.3838 Y98.1140 
G01 X49.2698 Y98.1140 
G01 X49.2698 Y98.2083 
G01 X48.6783 Y98.7998 
G01 X47.8417 Y98.7998 
G01 X47.2502 Y98.2083 
G01 X47.2502 Y97.3717 
G01 X47.8417 Y96.7802 
G01 X47.9360 Y96.7802 
G01 X47.9360 Y96.2598 
G01 X47.8417 Y96.2598 
G01 X47.2502 Y95.6683 
G01 X47.2502 Y94.8317 
G01 X47.8417 Y94.2402 
G01 X47.9360 Y94.2402 
G01 X47.9360 Y93.7198 
G01 X47.8417 Y93.7198 
G01 X47.2502 Y93.1283 
G01 X47.2502 Y92.2917 
G01 X47.8417 Y91.7002 
G01 X47.9360 Y91.7002 
G01 X47.9360 Y91.5862 
G01 X47.7945 Y91.5862 
G01 X47.2602 Y92.1205 
G01 X47.2152 Y92.1655 
G01 X47.2048 Y92.1759 
G01 X47.1324 Y92.2059 
G01 X47.0541 Y92.2059 
G01 X46.9816 Y92.1759 
G01 X46.9262 Y92.1205 
G01 X46.2460 Y91.4402 
G01 X45.1940 Y91.4402 
G01 X44.4502 Y92.1840 
G01 X44.4502 Y93.2360 
G01 X45.0272 Y93.8130 
G01 X45.0716 Y93.8573 
G01 X45.0826 Y93.8684 
G01 X45.1126 Y93.9408 
G01 X45.1126 Y94.0192 
G01 X45.0826 Y94.0916 
G01 X45.0272 Y94.1470 
G01 X44.4502 Y94.7240 
G01 X44.4502 Y95.8064 
G01 X44.4586 Y95.8268 
G01 X44.4586 Y95.8658 
G01 X44.4586 Y95.9052 
G01 X44.4414 Y95.9469 
G01 X44.4287 Y95.9776 
G01 X44.3971 Y96.0091 
G01 X44.3733 Y96.0330 
G01 X44.3379 Y96.0476 
G01 X44.3009 Y96.0630 
G01 X44.2619 Y96.0630 
G01 X44.2225 Y96.0630 
G01 X36.6897 Y96.0630 
G01 X36.6173 Y96.0330 
G01 X36.5619 Y95.9776 
G01 X36.0123 Y95.4280 
G01 X35.1077 Y95.4280 
G01 X34.4680 Y96.0677 
G01 X34.4680 Y96.9723 
G01 X35.1741 Y97.6784 
G01 X35.2041 Y97.7508 
G01 X35.2041 Y97.8292 
G01 X35.1741 Y97.9016 
G01 X35.1187 Y97.9570 
G01 X34.5027 Y98.5730 
G01 X34.4303 Y98.6030 
G01 X33.5878 Y98.6030 
G01 X33.5154 Y98.5730 
G01 X33.4600 Y98.5176 
G01 X33.4300 Y98.4452 
G01 X33.4300 Y98.3733 
G01 X33.2367 Y98.1800 
G01 X31.9633 Y98.1800 
G01 X31.9170 Y98.2263 
G01 X31.8616 Y98.2817 
G01 X31.8110 Y98.3027 
G01 X31.7892 Y98.3117 
G01 X31.7108 Y98.3117 
G01 X31.6384 Y98.2817 
G01 X31.5367 Y98.1800 
G01 X30.2633 Y98.1800 
G01 X30.0700 Y98.3733 
G01 X30.0700 Y99.7467 
G01 X30.2633 Y99.9400 
G01 X30.2852 Y99.9400 
G01 X30.3576 Y99.9700 
G01 X30.4130 Y100.0254 
G01 X30.4430 Y100.0978 
G01 X30.4430 Y100.5622 
G01 X30.4130 Y100.6346 
G01 X30.3576 Y100.6900 
G01 X30.2852 Y100.7200 
G01 X30.2633 Y100.7200 
G01 X30.0700 Y100.9133 
G01 X30.0700 Y102.2867 
G01 X30.2633 Y102.4800 
G01 X30.6713 Y102.4800 
G01 X30.7437 Y102.5100 
G01 X30.7991 Y102.5654 
G01 X31.3626 Y103.1289 
G01 X31.4911 Y103.2574 
G01 X31.5674 Y103.2890 
G01 X31.6398 Y103.3190 
G01 X31.6943 Y103.3736 
G01 X31.7124 Y103.4160 
G01 X31.7252 Y103.4468 
G01 X31.7252 Y103.5252 
G01 X31.6952 Y103.5976 
G01 X31.6406 Y103.6521 
G01 X31.5982 Y103.6702 
G01 X31.5674 Y103.6830 
G01 X30.7117 Y103.6830 
G01 X30.6393 Y103.6530 
G01 X30.5839 Y103.5976 
G01 X23.2474 Y96.2611 
G01 X23.1189 Y96.1326 
G01 X22.9509 Y96.0630 
G01 X21.4497 Y96.0630 
G01 X21.3773 Y96.0330 
G01 X21.3219 Y95.9776 
G01 X20.7059 Y95.3616 
G01 X20.6759 Y95.2892 
G01 X20.6759 Y95.2108 
G01 X20.7059 Y95.1384 
G01 X20.7613 Y95.0830 
G01 X21.3773 Y94.4670 
G01 X21.4497 Y94.4370 
G01 X29.1382 Y94.4370 
G01 X29.1523 Y94.4334 
G01 X29.1771 Y94.4370 
G01 X29.2020 Y94.4370 
G01 X29.2155 Y94.4426 
G01 X29.2330 Y94.4451 
G01 X29.2526 Y94.4370 
G01 X29.2671 Y94.4370 
G01 X29.2812 Y94.4334 
G01 X29.3022 Y94.4365 
G01 X29.3186 Y94.4297 
G01 X29.3302 Y94.4210 
G01 X29.3544 Y94.4148 
G01 X29.3775 Y94.4053 
G01 X29.3921 Y94.4053 
G01 X29.4092 Y94.4009 
G01 X29.4242 Y94.3859 
G01 X29.4377 Y94.3804 
G01 X29.4493 Y94.3716 
G01 X29.4699 Y94.3664 
G01 X29.4824 Y94.3539 
G01 X29.4898 Y94.3414 
G01 X29.5098 Y94.3264 
G01 X29.5275 Y94.3088 
G01 X29.5410 Y94.3032 
G01 X39.4366 Y86.9136 
G01 X39.4542 Y86.8959 
G01 X39.4677 Y86.8903 
G01 X39.4793 Y86.8816 
G01 X39.4999 Y86.8764 
G01 X39.5124 Y86.8639 
G01 X39.5198 Y86.8514 
G01 X39.5398 Y86.8365 
G01 X39.5575 Y86.8188 
G01 X39.5710 Y86.8132 
G01 X39.5851 Y86.8026 
G01 X39.5933 Y86.7830 
G01 X39.6035 Y86.7728 
G01 X39.6110 Y86.7602 
G01 X39.6280 Y86.7476 
G01 X39.6347 Y86.7312 
G01 X39.6368 Y86.7168 
G01 X39.6496 Y86.6953 
G01 X39.6592 Y86.6723 
G01 X39.6694 Y86.6620 
G01 X39.6785 Y86.6467 
G01 X39.6785 Y86.6256 
G01 X39.6841 Y86.6121 
G01 X39.6862 Y86.5977 
G01 X39.6970 Y86.5795 
G01 X39.6970 Y86.5618 
G01 X39.6934 Y86.5477 
G01 X39.6970 Y86.5229 
G01 X39.6970 Y86.4980 
G01 X39.7026 Y86.4845 
G01 X39.7051 Y86.4670 
G01 X39.6970 Y86.4474 
G01 X39.6970 Y86.4329 
G01 X39.6934 Y86.4188 
G01 X39.6970 Y86.3940 
G01 X39.6970 Y80.6478 
G01 X39.7270 Y80.5754 
G01 X39.7824 Y80.5200 
G01 X39.8548 Y80.4900 
G01 X39.8737 Y80.4900 
G01 X40.7700 Y79.5937 
G01 X40.7700 Y78.3263 
G01 X39.8737 Y77.4300 
G01 X38.6063 Y77.4300 
G01 X37.7100 Y78.3263 
G01 X37.7100 Y79.5937 
G01 X38.6063 Y80.4900 
G01 X38.6252 Y80.4900 
G01 X38.6976 Y80.5200 
G01 X38.7530 Y80.5754 
G01 X38.7830 Y80.6478 
G01 X38.7830 Y86.1375 
G01 X38.7866 Y86.1516 
G01 X38.7830 Y86.1764 
G01 X38.7830 Y86.2013 
G01 X38.7774 Y86.2148 
G01 X38.7753 Y86.2292 
G01 X38.7626 Y86.2507 
G01 X38.7530 Y86.2737 
G01 X38.7427 Y86.2840 
G01 X38.7353 Y86.2965 
G01 X38.7153 Y86.3115 
G01 X38.6976 Y86.3292 
G01 X38.6841 Y86.3347 
G01 X29.1220 Y93.4753 
G01 X29.1043 Y93.4930 
G01 X29.0909 Y93.4986 
G01 X29.0792 Y93.5073 
G01 X29.0550 Y93.5134 
G01 X29.0319 Y93.5230 
G01 X29.0174 Y93.5230 
G01 X29.0033 Y93.5266 
G01 X28.9785 Y93.5230 
G01 X21.4497 Y93.5230 
G01 X21.3773 Y93.4930 
G01 X21.3219 Y93.4376 
G01 X20.7723 Y92.8880 
G01 X19.8677 Y92.8880 
G01 X19.2280 Y93.5277 
G01 X19.2280 Y94.4323 
G01 X19.8787 Y95.0830 
G01 X19.9219 Y95.1262 
G01 X19.9341 Y95.1384 
G01 X19.9641 Y95.2108 
G01 X19.9641 Y95.2892 
G01 X19.9341 Y95.3616 
G01 X19.8787 Y95.4170 
G01 X19.2280 Y96.0677 
G01 X19.2280 Y96.9723 
G01 X19.8787 Y97.6230 
G01 X19.9219 Y97.6662 
G01 X19.9341 Y97.6784 
G01 X19.9641 Y97.7508 
G01 X19.9641 Y97.8292 
G01 X19.9341 Y97.9016 
G01 X19.8787 Y97.9570 
G01 X19.2280 Y98.6077 
G01 X19.2280 Y99.5123 
G01 X19.8787 Y100.1630 
G01 X19.9219 Y100.2062 
G01 X19.9341 Y100.2184 
G01 X19.9641 Y100.2908 
G01 X19.9641 Y100.3692 
G01 X19.9341 Y100.4416 
G01 X19.8787 Y100.4970 
G01 X19.2280 Y101.1477 
G01 X19.2280 Y102.0523 
G01 X19.8677 Y102.6920 
G01 X20.7723 Y102.6920 
G01 X21.3773 Y102.0870 
G01 X21.4497 Y102.0570 
G01 X23.8983 Y102.0570 
G01 X23.9707 Y102.0870 
G01 X24.0261 Y102.1424 
G01 X28.0880 Y106.2043 
G01 X28.1180 Y106.2767 
G01 X28.1180 Y107.0981 
G01 X28.1180 Y107.1371 
G01 X28.1180 Y107.1764 
G01 X28.1048 Y107.2084 
G01 X28.0880 Y107.2489 
G01 X28.0660 Y107.2709 
G01 X28.0326 Y107.3043 
G01 X27.9955 Y107.3196 
G01 X27.9602 Y107.3343 
G01 X27.9212 Y107.3343 
G01 X27.8818 Y107.3343 
G01 X27.8498 Y107.3210 
G01 X27.8094 Y107.3043 
G01 X27.7874 Y107.2822 
G01 X27.7540 Y107.2489 
G01 X27.7465 Y107.2307 
G01 X27.3893 Y106.8735 
G01 X26.9226 Y106.6802 
G01 X26.4174 Y106.6802 
G01 X25.9507 Y106.8735 
G01 X25.5935 Y107.2307 
G01 X25.5502 Y107.3352 
G01 X25.5203 Y107.4076 
G01 X25.4648 Y107.4630 
G01 X25.4142 Y107.4840 
G01 X25.3924 Y107.4930 
G01 X23.4278 Y107.4930 
G01 X23.3554 Y107.4630 
G01 X23.3000 Y107.4076 
G01 X23.2700 Y107.3352 
G01 X23.2700 Y107.2633 
G01 X23.0767 Y107.0700 
G01 X21.8033 Y107.0700 
G01 X21.6538 Y107.2195 
G01 X21.6294 Y107.2439 
G01 X21.5983 Y107.2750 
G01 X21.5657 Y107.2885 
G01 X21.5259 Y107.3049 
G01 X21.4869 Y107.3049 
G01 X21.4476 Y107.3049 
G01 X21.4085 Y107.2888 
G01 X21.3752 Y107.2750 
G01 X21.3530 Y107.2528 
G01 X21.3110 Y107.2285 
G01 X21.2642 Y107.2160 
G01 X21.0600 Y107.2160 
G01 X21.0600 Y107.3300 
G01 X21.2539 Y107.3300 
G01 X21.2797 Y107.3407 
G01 X21.2993 Y107.3603 
G01 X21.3100 Y107.3861 
G01 X21.3100 Y108.5139 
G01 X21.2993 Y108.5397 
G01 X21.2797 Y108.5593 
G01 X21.2539 Y108.5700 
G01 X21.0600 Y108.5700 
G01 X21.0600 Y108.6840 
G01 X21.2642 Y108.6840 
G01 X21.3110 Y108.6715 
G01 X21.3530 Y108.6472 
G01 X21.3751 Y108.6251 
G01 X21.4078 Y108.6115 
G01 X21.4475 Y108.5951 
G01 X21.4865 Y108.5950 
G01 X21.5259 Y108.5950 
G01 X21.5650 Y108.6112 
G01 X21.5983 Y108.6250 
G01 X21.6291 Y108.6558 
G01 X21.6538 Y108.6804 
G01 X21.8033 Y108.8300 
G01 X23.0767 Y108.8300 
G01 X23.2700 Y108.6367 
G01 X23.2700 Y108.5648 
G01 X23.3000 Y108.4924 
G01 X23.3554 Y108.4370 
G01 X23.4278 Y108.4070 
G01 X25.3924 Y108.4070 
G01 X25.4130 Y108.4155 
G01 X25.4648 Y108.4370 
G01 X25.5203 Y108.4924 
G01 X25.5502 Y108.5648 
G01 X25.5935 Y108.6693 
G01 X25.9507 Y109.0265 
G01 X25.9565 Y109.0289 
G01 X26.0147 Y109.0530 
G01 X26.0693 Y109.1075 
G01 X26.0947 Y109.1678 
G01 X26.1001 Y109.1808 
G01 X26.1001 Y109.2196 
G01 X26.1001 Y109.2592 
G01 X26.0932 Y109.2759 
G01 X26.0701 Y109.3316 
G01 X26.0156 Y109.3861 
G01 X25.9507 Y109.4135 
G01 X25.5935 Y109.7707 
G01 X25.4002 Y110.2374 
G01 X25.4002 Y110.7426 
G01 X25.5935 Y111.2093 
G01 X25.9507 Y111.5665 
G01 X25.9565 Y111.5689 
G01 X26.0147 Y111.5930 
G01 X26.0693 Y111.6475 
G01 X26.0947 Y111.7078 
G01 X26.1001 Y111.7208 
G01 X26.1001 Y111.7596 
G01 X26.1001 Y111.7992 
G01 X26.0932 Y111.8159 
G01 X26.0701 Y111.8716 
G01 X26.0156 Y111.9261 
G01 X25.9507 Y111.9535 
G01 X25.5935 Y112.3107 
G01 X25.5502 Y112.4152 
G01 X25.5203 Y112.4876 
G01 X25.4648 Y112.5430 
G01 X25.4142 Y112.5640 
G01 X25.3924 Y112.5730 
G01 X23.4278 Y112.5730 
G01 X23.3554 Y112.5430 
G01 X23.3000 Y112.4876 
G01 X23.2700 Y112.4152 
G01 X23.2700 Y112.3433 
G01 X23.0767 Y112.1500 
G00 Z2.0000  
G00 X34.0733 Y108.8300 
G01 Z-0.2000 F200   
G01 X35.3467 Y108.8300 F500   
G01 X35.4962 Y108.6804 
G01 X35.5206 Y108.6561 
G01 X35.5516 Y108.6250 
G01 X35.5843 Y108.6115 
G01 X35.6240 Y108.5950 
G01 X35.6630 Y108.5950 
G01 X35.7024 Y108.5950 
G01 X35.7415 Y108.6112 
G01 X35.7748 Y108.6250 
G01 X35.7970 Y108.6472 
G01 X35.8390 Y108.6715 
G01 X35.8858 Y108.6840 
G01 X36.0900 Y108.6840 
G01 X36.0900 Y108.5700 
G01 X35.8961 Y108.5700 
G01 X35.8703 Y108.5593 
G01 X35.8507 Y108.5397 
G01 X35.8400 Y108.5139 
G01 X35.8400 Y107.3861 
G01 X35.8507 Y107.3603 
G01 X35.8703 Y107.3407 
G01 X35.8961 Y107.3300 
G01 X36.0900 Y107.3300 
G01 X36.0900 Y107.2160 
G01 X35.8858 Y107.2160 
G01 X35.8390 Y107.2285 
G01 X35.7970 Y107.2528 
G01 X35.7748 Y107.2749 
G01 X35.7422 Y107.2885 
G01 X35.7024 Y107.3049 
G01 X35.6635 Y107.3049 
G01 X35.6241 Y107.3050 
G01 X35.5850 Y107.2888 
G01 X35.5517 Y107.2750 
G01 X35.5209 Y107.2442 
G01 X35.4962 Y107.2196 
G01 X35.3467 Y107.0700 
G01 X34.0733 Y107.0700 
G01 X33.8800 Y107.2633 
G01 X33.8800 Y107.3352 
G01 X33.8500 Y107.4076 
G01 X33.7946 Y107.4630 
G01 X33.7222 Y107.4930 
G01 X33.0276 Y107.4930 
G01 X33.0070 Y107.4845 
G01 X32.9552 Y107.4630 
G01 X32.8997 Y107.4076 
G01 X32.8698 Y107.3352 
G01 X32.8265 Y107.2307 
G01 X32.4693 Y106.8735 
G01 X32.0026 Y106.6802 
G01 X31.4974 Y106.6802 
G01 X31.0307 Y106.8735 
G01 X30.6735 Y107.2307 
G01 X30.6660 Y107.2488 
G01 X30.6329 Y107.2819 
G01 X30.6106 Y107.3042 
G01 X30.5705 Y107.3209 
G01 X30.5382 Y107.3343 
G01 X30.4992 Y107.3343 
G01 X30.4598 Y107.3343 
G01 X30.4249 Y107.3198 
G01 X30.3874 Y107.3043 
G01 X30.3543 Y107.2712 
G01 X30.3320 Y107.2489 
G01 X30.3154 Y107.2088 
G01 X30.3020 Y107.1765 
G01 X30.3020 Y107.1375 
G01 X30.3020 Y107.0981 
G01 X30.3020 Y105.3191 
G01 X30.2324 Y105.1511 
G01 X30.0485 Y104.9672 
G01 X23.7539 Y98.6726 
G01 X23.5859 Y98.6030 
G01 X21.4497 Y98.6030 
G01 X21.3773 Y98.5730 
G01 X21.3219 Y98.5176 
G01 X20.7059 Y97.9016 
G01 X20.6759 Y97.8292 
G01 X20.6759 Y97.7508 
G01 X20.7059 Y97.6784 
G01 X20.7613 Y97.6230 
G01 X21.3773 Y97.0070 
G01 X21.4497 Y96.9770 
G01 X22.6283 Y96.9770 
G01 X22.7007 Y97.0070 
G01 X22.7561 Y97.0624 
G01 X30.2211 Y104.5274 
G01 X30.3891 Y104.5970 
G01 X36.5983 Y104.5970 
G01 X36.6707 Y104.6270 
G01 X36.7261 Y104.6824 
G01 X38.8830 Y106.8393 
G01 X38.9130 Y106.9117 
G01 X38.9130 Y109.0346 
G01 X38.9045 Y109.0552 
G01 X38.8830 Y109.1070 
G01 X38.8276 Y109.1625 
G01 X38.7552 Y109.1924 
G01 X38.6507 Y109.2357 
G01 X38.2935 Y109.5929 
G01 X38.1002 Y110.0596 
G01 X38.1002 Y110.5648 
G01 X38.2935 Y111.0315 
G01 X38.6507 Y111.3887 
G01 X39.0716 Y111.5630 
G01 X39.1394 Y111.5911 
G01 X39.1440 Y111.5930 
G01 X39.1994 Y111.6484 
G01 X39.2294 Y111.7208 
G01 X39.2294 Y111.7992 
G01 X39.2002 Y111.8695 
G01 X39.1440 Y111.9270 
G01 X39.0716 Y111.9570 
G01 X38.6507 Y112.1313 
G01 X38.2944 Y112.4876 
G01 X38.2462 Y112.5358 
G01 X38.2390 Y112.5430 
G01 X38.1666 Y112.5730 
G01 X37.3978 Y112.5730 
G01 X37.3254 Y112.5430 
G01 X37.2700 Y112.4876 
G01 X37.2400 Y112.4152 
G01 X37.2400 Y112.3433 
G01 X37.0467 Y112.1500 
G01 X35.7733 Y112.1500 
G01 X35.6716 Y112.2517 
G01 X35.5992 Y112.2817 
G01 X35.5208 Y112.2817 
G01 X35.5002 Y112.2732 
G01 X35.4484 Y112.2517 
G01 X35.3930 Y112.1963 
G01 X35.3467 Y112.1500 
G01 X34.0733 Y112.1500 
G01 X33.8800 Y112.3433 
G01 X33.8800 Y112.4152 
G01 X33.8500 Y112.4876 
G01 X33.7946 Y112.5430 
G01 X33.7222 Y112.5730 
G01 X33.0276 Y112.5730 
G01 X33.0070 Y112.5645 
G01 X32.9552 Y112.5430 
G01 X32.8997 Y112.4876 
G01 X32.8698 Y112.4152 
G01 X32.8265 Y112.3107 
G01 X32.4693 Y111.9535 
G01 X32.4053 Y111.9270 
G01 X32.3499 Y111.8716 
G01 X32.3275 Y111.8176 
G01 X32.3199 Y111.7992 
G01 X32.3199 Y111.7604 
G01 X32.3199 Y111.7208 
G01 X32.3248 Y111.7090 
G01 X32.3499 Y111.6484 
G01 X32.4053 Y111.5930 
G01 X32.4617 Y111.5696 
G01 X32.4693 Y111.5665 
G01 X32.8265 Y111.2093 
G01 X33.0198 Y110.7426 
G01 X33.0198 Y110.2374 
G01 X32.8265 Y109.7707 
G01 X32.4693 Y109.4135 
G01 X32.4053 Y109.3870 
G01 X32.3499 Y109.3316 
G01 X32.3275 Y109.2776 
G01 X32.3199 Y109.2592 
G01 X32.3199 Y109.2204 
G01 X32.3199 Y109.1808 
G01 X32.3248 Y109.1690 
G01 X32.3499 Y109.1084 
G01 X32.4053 Y109.0530 
G01 X32.4617 Y109.0296 
G01 X32.4693 Y109.0265 
G01 X32.8265 Y108.6693 
G01 X32.8698 Y108.5648 
G01 X32.8997 Y108.4924 
G01 X32.9552 Y108.4370 
G01 X33.0058 Y108.4160 
G01 X33.0276 Y108.4070 
G01 X33.7222 Y108.4070 
G01 X33.7946 Y108.4370 
G01 X33.8500 Y108.4924 
G01 X33.8800 Y108.5648 
G01 X33.8800 Y108.6367 
G01 X34.0733 Y108.8300 
G00 Z2.0000  
G00 X40.5100 Y78.4340 
G01 Z-0.2000 F200   
G01 X40.5100 Y79.4860 F500   
G01 X39.7660 Y80.2300 
G01 X39.4370 Y80.2300 
G01 X39.4370 Y86.4654 
G01 X39.4406 Y86.4795 
G01 X39.4370 Y86.5042 
G01 X39.4370 Y86.5292 
G01 X39.4314 Y86.5426 
G01 X39.4293 Y86.5570 
G01 X39.4166 Y86.5785 
G01 X39.4070 Y86.6016 
G01 X39.3967 Y86.6119 
G01 X39.3893 Y86.6244 
G01 X39.3693 Y86.6393 
G01 X39.3516 Y86.6570 
G01 X39.3381 Y86.6626 
G01 X29.3393 Y94.1293 
G01 X29.3216 Y94.1470 
G01 X29.3081 Y94.1526 
G01 X29.2965 Y94.1613 
G01 X29.2723 Y94.1674 
G01 X29.2492 Y94.1770 
G01 X29.2346 Y94.1770 
G01 X29.2205 Y94.1806 
G01 X29.1958 Y94.1770 
G01 X21.1520 Y94.1770 
G01 X21.1520 Y94.3246 
G01 X20.6646 Y94.8120 
G01 X19.9754 Y94.8120 
G01 X19.4880 Y94.3246 
G01 X19.4880 Y93.6354 
G01 X19.9754 Y93.1480 
G01 X20.6646 Y93.1480 
G01 X21.1520 Y93.6354 
G01 X21.1520 Y93.7830 
G01 X29.1446 Y93.7830 
G01 X39.0430 Y86.3912 
G01 X39.0430 Y80.2300 
G01 X38.7140 Y80.2300 
G01 X37.9700 Y79.4860 
G01 X37.9700 Y78.4340 
G01 X38.7140 Y77.6900 
G01 X39.7660 Y77.6900 
G01 X40.5100 Y78.4340 
G00 Z2.0000  
G00 X21.1520 Y96.1754 
G01 Z-0.2000 F200   
G01 X21.1520 Y96.3230 F500   
G01 X22.8992 Y96.3230 
G01 X22.9716 Y96.3530 
G01 X23.0270 Y96.4084 
G01 X30.5616 Y103.9430 
G01 X36.8692 Y103.9430 
G01 X36.9416 Y103.9730 
G01 X36.9970 Y104.0284 
G01 X39.5370 Y106.5684 
G01 X39.5670 Y106.6408 
G01 X39.5670 Y109.3218 
G01 X39.6645 Y109.3412 
G01 X39.8483 Y109.4173 
G01 X40.0137 Y109.5278 
G01 X40.1544 Y109.6685 
G01 X40.2649 Y109.8339 
G01 X40.3410 Y110.0177 
G01 X40.3798 Y110.2127 
G01 X40.3798 Y110.4117 
G01 X40.3410 Y110.6067 
G01 X40.2649 Y110.7905 
G01 X40.1544 Y110.9559 
G01 X40.0137 Y111.0966 
G01 X39.8483 Y111.2071 
G01 X39.6645 Y111.2832 
G01 X39.4695 Y111.3220 
G01 X39.2705 Y111.3220 
G01 X39.0755 Y111.2832 
G01 X38.8917 Y111.2071 
G01 X38.7263 Y111.0966 
G01 X38.5856 Y110.9559 
G01 X38.4751 Y110.7905 
G01 X38.3990 Y110.6067 
G01 X38.3602 Y110.4117 
G01 X38.3602 Y110.2127 
G01 X38.3990 Y110.0177 
G01 X38.4751 Y109.8339 
G01 X38.5856 Y109.6685 
G01 X38.7263 Y109.5278 
G01 X38.8917 Y109.4173 
G01 X39.0755 Y109.3412 
G01 X39.1730 Y109.3218 
G01 X39.1730 Y106.7616 
G01 X36.7484 Y104.3370 
G01 X30.4408 Y104.3370 
G01 X30.3684 Y104.3070 
G01 X22.7784 Y96.7170 
G01 X21.1520 Y96.7170 
G01 X21.1520 Y96.8646 
G01 X20.6646 Y97.3520 
G01 X19.9754 Y97.3520 
G01 X19.4880 Y96.8646 
G01 X19.4880 Y96.1754 
G01 X19.9754 Y95.6880 
G01 X20.6646 Y95.6880 
G01 X21.1520 Y96.1754 
G00 Z2.0000  
G00 X21.1520 Y101.2554 
G01 Z-0.2000 F200   
G01 X21.1520 Y101.4030 F500   
G01 X24.1692 Y101.4030 
G01 X24.2416 Y101.4330 
G01 X28.6866 Y105.8780 
G01 X28.7420 Y105.9334 
G01 X28.7720 Y106.0058 
G01 X28.7720 Y108.6242 
G01 X28.7420 Y108.6966 
G01 X27.5096 Y109.9290 
G01 X27.5649 Y110.0117 
G01 X27.6410 Y110.1955 
G01 X27.6798 Y110.3905 
G01 X27.6798 Y110.5895 
G01 X27.6410 Y110.7845 
G01 X27.5649 Y110.9683 
G01 X27.4544 Y111.1337 
G01 X27.3137 Y111.2744 
G01 X27.1483 Y111.3849 
G01 X26.9645 Y111.4610 
G01 X26.7695 Y111.4998 
G01 X26.5705 Y111.4998 
G01 X26.3755 Y111.4610 
G01 X26.1917 Y111.3849 
G01 X26.0263 Y111.2744 
G01 X25.8856 Y111.1337 
G01 X25.7751 Y110.9683 
G01 X25.6990 Y110.7845 
G01 X25.6602 Y110.5895 
G01 X25.6602 Y110.3905 
G01 X25.6990 Y110.1955 
G01 X25.7751 Y110.0117 
G01 X25.8856 Y109.8463 
G01 X26.0263 Y109.7056 
G01 X26.1917 Y109.5951 
G01 X26.3755 Y109.5190 
G01 X26.5705 Y109.4802 
G01 X26.7695 Y109.4802 
G01 X26.9645 Y109.5190 
G01 X27.1483 Y109.5951 
G01 X27.2310 Y109.6504 
G01 X28.3780 Y108.5034 
G01 X28.3780 Y106.1266 
G01 X24.0484 Y101.7970 
G01 X21.1520 Y101.7970 
G01 X21.1520 Y101.9446 
G01 X20.6646 Y102.4320 
G01 X19.9754 Y102.4320 
G01 X19.4880 Y101.9446 
G01 X19.4880 Y101.2554 
G01 X19.9754 Y100.7680 
G01 X20.6646 Y100.7680 
G01 X21.1520 Y101.2554 
G00 Z2.0000  
G00 X36.3920 Y101.2554 
G01 Z-0.2000 F200   
G01 X36.3920 Y101.4030 F500   
G01 X40.6792 Y101.4030 
G01 X40.7516 Y101.4330 
G01 X44.5316 Y105.2130 
G01 X46.9084 Y105.2130 
G01 X48.0630 Y104.0584 
G01 X48.0630 Y103.8798 
G01 X47.8417 Y103.8798 
G01 X47.2502 Y103.2883 
G01 X47.2502 Y102.4517 
G01 X47.8417 Y101.8602 
G01 X48.6783 Y101.8602 
G01 X49.2698 Y102.4517 
G01 X49.2698 Y103.2883 
G01 X48.6783 Y103.8798 
G01 X48.4570 Y103.8798 
G01 X48.4570 Y104.1792 
G01 X48.4270 Y104.2516 
G01 X47.1016 Y105.5770 
G01 X47.0292 Y105.6070 
G01 X44.4108 Y105.6070 
G01 X44.3384 Y105.5770 
G01 X40.5584 Y101.7970 
G01 X36.3920 Y101.7970 
G01 X36.3920 Y101.9446 
G01 X35.9046 Y102.4320 
G01 X35.2154 Y102.4320 
G01 X34.7280 Y101.9446 
G01 X34.7280 Y101.7970 
G01 X33.1700 Y101.7970 
G01 X33.1700 Y102.1639 
G01 X33.1593 Y102.1897 
G01 X33.1397 Y102.2093 
G01 X33.1139 Y102.2200 
G01 X32.0861 Y102.2200 
G01 X32.0603 Y102.2093 
G01 X32.0407 Y102.1897 
G01 X32.0300 Y102.1639 
G01 X32.0300 Y101.0361 
G01 X32.0407 Y101.0103 
G01 X32.0603 Y100.9907 
G01 X32.0861 Y100.9800 
G01 X33.1139 Y100.9800 
G01 X33.1397 Y100.9907 
G01 X33.1593 Y101.0103 
G01 X33.1700 Y101.0361 
G01 X33.1700 Y101.4030 
G01 X34.7280 Y101.4030 
G01 X34.7280 Y101.2554 
G01 X35.2154 Y100.7680 
G01 X35.9046 Y100.7680 
G01 X36.3920 Y101.2554 
G00 Z2.0000  
G00 X23.0100 Y107.3861 
G01 Z-0.2000 F200   
G01 X23.0100 Y107.7530 F500   
G01 X25.6796 Y107.7530 
G01 X25.6990 Y107.6555 
G01 X25.7751 Y107.4717 
G01 X25.8856 Y107.3063 
G01 X26.0263 Y107.1656 
G01 X26.1917 Y107.0551 
G01 X26.3755 Y106.9790 
G01 X26.5705 Y106.9402 
G01 X26.7695 Y106.9402 
G01 X26.9645 Y106.9790 
G01 X27.1483 Y107.0551 
G01 X27.3137 Y107.1656 
G01 X27.4544 Y107.3063 
G01 X27.5649 Y107.4717 
G01 X27.6410 Y107.6555 
G01 X27.6798 Y107.8505 
G01 X27.6798 Y108.0495 
G01 X27.6410 Y108.2445 
G01 X27.5649 Y108.4283 
G01 X27.4544 Y108.5937 
G01 X27.3137 Y108.7344 
G01 X27.1483 Y108.8449 
G01 X26.9645 Y108.9210 
G01 X26.7695 Y108.9598 
G01 X26.5705 Y108.9598 
G01 X26.3755 Y108.9210 
G01 X26.1917 Y108.8449 
G01 X26.0263 Y108.7344 
G01 X25.8856 Y108.5937 
G01 X25.7751 Y108.4283 
G01 X25.6990 Y108.2445 
G01 X25.6796 Y108.1470 
G01 X23.0100 Y108.1470 
G01 X23.0100 Y108.5139 
G01 X22.9993 Y108.5397 
G01 X22.9796 Y108.5593 
G01 X22.9539 Y108.5700 
G01 X21.9261 Y108.5700 
G01 X21.9003 Y108.5593 
G01 X21.8807 Y108.5397 
G01 X21.8700 Y108.5139 
G01 X21.8700 Y107.3861 
G01 X21.8807 Y107.3603 
G01 X21.9003 Y107.3407 
G01 X21.9261 Y107.3300 
G01 X22.9539 Y107.3300 
G01 X22.9796 Y107.3407 
G01 X22.9993 Y107.3603 
G01 X23.0100 Y107.3861 
G00 Z2.0000  
G00 X34.1400 Y108.5139 
G01 Z-0.2000 F200   
G01 X34.1400 Y108.1470 F500   
G01 X32.7404 Y108.1470 
G01 X32.7210 Y108.2445 
G01 X32.6449 Y108.4283 
G01 X32.5344 Y108.5937 
G01 X32.3937 Y108.7344 
G01 X32.2283 Y108.8449 
G01 X32.0445 Y108.9210 
G01 X31.8495 Y108.9598 
G01 X31.6505 Y108.9598 
G01 X31.4555 Y108.9210 
G01 X31.2717 Y108.8449 
G01 X31.1063 Y108.7344 
G01 X30.9656 Y108.5937 
G01 X30.8551 Y108.4283 
G01 X30.7790 Y108.2445 
G01 X30.7402 Y108.0495 
G01 X30.7402 Y107.8505 
G01 X30.7790 Y107.6555 
G01 X30.8551 Y107.4717 
G01 X30.9656 Y107.3063 
G01 X31.1063 Y107.1656 
G01 X31.2717 Y107.0551 
G01 X31.4555 Y106.9790 
G01 X31.6505 Y106.9402 
G01 X31.8495 Y106.9402 
G01 X32.0445 Y106.9790 
G01 X32.2283 Y107.0551 
G01 X32.3937 Y107.1656 
G01 X32.5344 Y107.3063 
G01 X32.6449 Y107.4717 
G01 X32.7210 Y107.6555 
G01 X32.7404 Y107.7530 
G01 X34.1400 Y107.7530 
G01 X34.1400 Y107.3861 
G01 X34.1507 Y107.3603 
G01 X34.1703 Y107.3407 
G01 X34.1961 Y107.3300 
G01 X35.2239 Y107.3300 
G01 X35.2497 Y107.3407 
G01 X35.2693 Y107.3603 
G01 X35.2800 Y107.3861 
G01 X35.2800 Y108.5139 
G01 X35.2693 Y108.5397 
G01 X35.2497 Y108.5593 
G01 X35.2239 Y108.5700 
G01 X34.1961 Y108.5700 
G01 X34.1703 Y108.5593 
G01 X34.1507 Y108.5397 
G01 X34.1400 Y108.5139 
G00 Z2.0000  
G00 X32.0300 Y99.6239 
G01 Z-0.2000 F200   
G01 X32.0300 Y98.4961 F500   
G01 X32.0407 Y98.4703 
G01 X32.0603 Y98.4507 
G01 X32.0861 Y98.4400 
G01 X33.1139 Y98.4400 
G01 X33.1397 Y98.4507 
G01 X33.1593 Y98.4703 
G01 X33.1700 Y98.4961 
G01 X33.1700 Y98.8630 
G01 X34.7280 Y98.8630 
G01 X34.7280 Y98.7154 
G01 X35.2154 Y98.2280 
G01 X35.9046 Y98.2280 
G01 X36.3920 Y98.7154 
G01 X36.3920 Y98.8630 
G01 X40.6792 Y98.8630 
G01 X40.7516 Y98.8930 
G01 X40.8070 Y98.9484 
G01 X44.5316 Y102.6730 
G01 X44.7102 Y102.6730 
G01 X44.7102 Y102.4517 
G01 X45.3017 Y101.8602 
G01 X46.1383 Y101.8602 
G01 X46.7298 Y102.4517 
G01 X46.7298 Y103.2883 
G01 X46.1383 Y103.8798 
G01 X45.3017 Y103.8798 
G01 X44.7102 Y103.2883 
G01 X44.7102 Y103.0670 
G01 X44.4108 Y103.0670 
G01 X44.3384 Y103.0370 
G01 X40.5584 Y99.2570 
G01 X36.3920 Y99.2570 
G01 X36.3920 Y99.4046 
G01 X35.9046 Y99.8920 
G01 X35.2154 Y99.8920 
G01 X34.7280 Y99.4046 
G01 X34.7280 Y99.2570 
G01 X33.1700 Y99.2570 
G01 X33.1700 Y99.6239 
G01 X33.1593 Y99.6497 
G01 X33.1397 Y99.6693 
G01 X33.1139 Y99.6800 
G01 X32.0861 Y99.6800 
G01 X32.0603 Y99.6693 
G01 X32.0407 Y99.6497 
G01 X32.0300 Y99.6239 
G00 Z2.0000  
G00 X30.3300 Y99.6239 
G01 Z-0.2000 F200   
G01 X30.3300 Y98.4961 F500   
G01 X30.3407 Y98.4703 
G01 X30.3603 Y98.4507 
G01 X30.3861 Y98.4400 
G01 X31.4139 Y98.4400 
G01 X31.4397 Y98.4507 
G01 X31.4593 Y98.4703 
G01 X31.4700 Y98.4961 
G01 X31.4700 Y99.6239 
G01 X31.4593 Y99.6497 
G01 X31.4397 Y99.6693 
G01 X31.4139 Y99.6800 
G01 X31.0970 Y99.6800 
G01 X31.0970 Y100.9800 
G01 X31.4139 Y100.9800 
G01 X31.4397 Y100.9907 
G01 X31.4593 Y101.0103 
G01 X31.4700 Y101.0361 
G01 X31.4700 Y102.1639 
G01 X31.4593 Y102.1897 
G01 X31.4397 Y102.2093 
G01 X31.4139 Y102.2200 
G01 X31.3786 Y102.2200 
G01 X31.8316 Y102.6730 
G01 X39.4092 Y102.6730 
G01 X39.4816 Y102.7030 
G01 X45.7200 Y108.9414 
G01 X50.6030 Y104.0584 
G01 X50.6030 Y101.6816 
G01 X49.4484 Y100.5270 
G01 X49.2698 Y100.5270 
G01 X49.2698 Y100.7483 
G01 X48.6783 Y101.3398 
G01 X47.8417 Y101.3398 
G01 X47.2502 Y100.7483 
G01 X47.2502 Y100.5270 
G01 X46.7298 Y100.5270 
G01 X46.7298 Y100.7483 
G01 X46.1383 Y101.3398 
G01 X45.3017 Y101.3398 
G01 X44.7102 Y100.7483 
G01 X44.7102 Y99.9117 
G01 X45.3017 Y99.3202 
G01 X46.1383 Y99.3202 
G01 X46.7298 Y99.9117 
G01 X46.7298 Y100.1330 
G01 X47.2502 Y100.1330 
G01 X47.2502 Y99.9117 
G01 X47.8417 Y99.3202 
G01 X48.6783 Y99.3202 
G01 X49.2698 Y99.9117 
G01 X49.2698 Y100.1330 
G01 X49.5692 Y100.1330 
G01 X49.6416 Y100.1630 
G01 X50.9670 Y101.4884 
G01 X50.9970 Y101.5608 
G01 X50.9970 Y104.1792 
G01 X50.9670 Y104.2516 
G01 X50.9116 Y104.3070 
G01 X45.8316 Y109.3870 
G01 X42.0216 Y113.1970 
G01 X41.9492 Y113.2270 
G01 X40.3798 Y113.2270 
G01 X40.3798 Y113.3073 
G01 X40.3410 Y113.5023 
G01 X40.2649 Y113.6861 
G01 X40.1544 Y113.8515 
G01 X40.0137 Y113.9922 
G01 X39.8483 Y114.1027 
G01 X39.6645 Y114.1788 
G01 X39.4695 Y114.2176 
G01 X39.2705 Y114.2176 
G01 X39.0755 Y114.1788 
G01 X38.8917 Y114.1027 
G01 X38.7263 Y113.9922 
G01 X38.7064 Y113.9722 
G01 X36.9416 Y115.7370 
G01 X36.8692 Y115.7670 
G01 X21.5508 Y115.7670 
G01 X21.4784 Y115.7370 
G01 X21.4230 Y115.6816 
G01 X20.5730 Y114.8316 
G01 X20.5430 Y114.7592 
G01 X20.5430 Y113.6500 
G01 X20.2261 Y113.6500 
G01 X20.2003 Y113.6393 
G01 X20.1807 Y113.6197 
G01 X20.1700 Y113.5939 
G01 X20.1700 Y112.4661 
G01 X20.1807 Y112.4403 
G01 X20.2003 Y112.4207 
G01 X20.2261 Y112.4100 
G01 X21.2539 Y112.4100 
G01 X21.2797 Y112.4207 
G01 X21.2993 Y112.4403 
G01 X21.3100 Y112.4661 
G01 X21.3100 Y113.5939 
G01 X21.2993 Y113.6197 
G01 X21.2797 Y113.6393 
G01 X21.2539 Y113.6500 
G01 X20.9370 Y113.6500 
G01 X20.9370 Y114.6384 
G01 X21.6716 Y115.3730 
G01 X36.7484 Y115.3730 
G01 X38.4635 Y113.6579 
G01 X38.3990 Y113.5023 
G01 X38.3602 Y113.3073 
G01 X38.3602 Y113.2270 
G01 X36.9800 Y113.2270 
G01 X36.9800 Y113.5939 
G01 X36.9693 Y113.6197 
G01 X36.9496 Y113.6393 
G01 X36.9239 Y113.6500 
G01 X35.8961 Y113.6500 
G01 X35.8703 Y113.6393 
G01 X35.8507 Y113.6197 
G01 X35.8400 Y113.5939 
G01 X35.8400 Y112.4661 
G01 X35.8507 Y112.4403 
G01 X35.8703 Y112.4207 
G01 X35.8961 Y112.4100 
G01 X36.9239 Y112.4100 
G01 X36.9496 Y112.4207 
G01 X36.9693 Y112.4403 
G01 X36.9800 Y112.4661 
G01 X36.9800 Y112.8330 
G01 X38.4322 Y112.8330 
G01 X38.4751 Y112.7295 
G01 X38.5856 Y112.5641 
G01 X38.7263 Y112.4234 
G01 X38.8917 Y112.3129 
G01 X39.0755 Y112.2368 
G01 X39.2705 Y112.1980 
G01 X39.4695 Y112.1980 
G01 X39.6645 Y112.2368 
G01 X39.8483 Y112.3129 
G01 X40.0137 Y112.4234 
G01 X40.1544 Y112.5641 
G01 X40.2649 Y112.7295 
G01 X40.3077 Y112.8330 
G01 X41.8284 Y112.8330 
G01 X45.4414 Y109.2200 
G01 X39.2884 Y103.0670 
G01 X31.7108 Y103.0670 
G01 X31.6384 Y103.0370 
G01 X31.5830 Y102.9816 
G01 X30.8214 Y102.2200 
G01 X30.3861 Y102.2200 
G01 X30.3603 Y102.2093 
G01 X30.3407 Y102.1897 
G01 X30.3300 Y102.1639 
G01 X30.3300 Y101.0361 
G01 X30.3407 Y101.0103 
G01 X30.3603 Y100.9907 
G01 X30.3861 Y100.9800 
G01 X30.7030 Y100.9800 
G01 X30.7030 Y99.6800 
G01 X30.3861 Y99.6800 
G01 X30.3603 Y99.6693 
G01 X30.3407 Y99.6497 
G01 X30.3300 Y99.6239 
G00 Z2.0000  
G00 X27.6798 Y112.9305 
G01 Z-0.2000 F200   
G01 X27.6798 Y113.1295 F500   
G01 X27.6410 Y113.3245 
G01 X27.5649 Y113.5083 
G01 X27.4544 Y113.6737 
G01 X27.3137 Y113.8144 
G01 X27.1483 Y113.9249 
G01 X26.9645 Y114.0010 
G01 X26.7695 Y114.0398 
G01 X26.5705 Y114.0398 
G01 X26.3755 Y114.0010 
G01 X26.1917 Y113.9249 
G01 X26.0263 Y113.8144 
G01 X25.8856 Y113.6737 
G01 X25.7751 Y113.5083 
G01 X25.6990 Y113.3245 
G01 X25.6796 Y113.2270 
G01 X23.0100 Y113.2270 
G01 X23.0100 Y113.5939 
G01 X22.9993 Y113.6197 
G01 X22.9796 Y113.6393 
G01 X22.9539 Y113.6500 
G01 X21.9261 Y113.6500 
G01 X21.9003 Y113.6393 
G01 X21.8807 Y113.6197 
G01 X21.8700 Y113.5939 
G01 X21.8700 Y112.4661 
G01 X21.8807 Y112.4403 
G01 X21.9003 Y112.4207 
G01 X21.9261 Y112.4100 
G01 X22.9539 Y112.4100 
G01 X22.9796 Y112.4207 
G01 X22.9993 Y112.4403 
G01 X23.0100 Y112.4661 
G01 X23.0100 Y112.8330 
G01 X25.6796 Y112.8330 
G01 X25.6990 Y112.7355 
G01 X25.7751 Y112.5517 
G01 X25.8856 Y112.3863 
G01 X26.0263 Y112.2456 
G01 X26.1917 Y112.1351 
G01 X26.3755 Y112.0590 
G01 X26.5705 Y112.0202 
G01 X26.7695 Y112.0202 
G01 X26.9645 Y112.0590 
G01 X27.1483 Y112.1351 
G01 X27.3137 Y112.2456 
G01 X27.4544 Y112.3863 
G01 X27.5649 Y112.5517 
G01 X27.6410 Y112.7355 
G01 X27.6798 Y112.9305 
G00 Z2.0000  
G00 X32.7598 Y110.3905 
G01 Z-0.2000 F200   
G01 X32.7598 Y110.5895 F500   
G01 X32.7210 Y110.7845 
G01 X32.6449 Y110.9683 
G01 X32.5344 Y111.1337 
G01 X32.3937 Y111.2744 
G01 X32.2283 Y111.3849 
G01 X32.0445 Y111.4610 
G01 X31.8495 Y111.4998 
G01 X31.6505 Y111.4998 
G01 X31.4555 Y111.4610 
G01 X31.2717 Y111.3849 
G01 X31.1063 Y111.2744 
G01 X30.9656 Y111.1337 
G01 X30.8551 Y110.9683 
G01 X30.7790 Y110.7845 
G01 X30.7402 Y110.5895 
G01 X30.7402 Y110.3905 
G01 X30.7790 Y110.1955 
G01 X30.8551 Y110.0117 
G01 X30.9104 Y109.9290 
G01 X29.6780 Y108.6966 
G01 X29.6480 Y108.6242 
G01 X29.6480 Y105.4916 
G01 X23.4134 Y99.2570 
G01 X21.1520 Y99.2570 
G01 X21.1520 Y99.4046 
G01 X20.6646 Y99.8920 
G01 X19.9754 Y99.8920 
G01 X19.4880 Y99.4046 
G01 X19.4880 Y98.7154 
G01 X19.9754 Y98.2280 
G01 X20.6646 Y98.2280 
G01 X21.1520 Y98.7154 
G01 X21.1520 Y98.8630 
G01 X23.5342 Y98.8630 
G01 X23.6066 Y98.8930 
G01 X29.9566 Y105.2430 
G01 X30.0120 Y105.2984 
G01 X30.0420 Y105.3708 
G01 X30.0420 Y108.5034 
G01 X31.1890 Y109.6504 
G01 X31.2717 Y109.5951 
G01 X31.4555 Y109.5190 
G01 X31.6505 Y109.4802 
G01 X31.8495 Y109.4802 
G01 X32.0445 Y109.5190 
G01 X32.2283 Y109.5951 
G01 X32.3937 Y109.7056 
G01 X32.5344 Y109.8463 
G01 X32.6449 Y110.0117 
G01 X32.7210 Y110.1955 
G01 X32.7598 Y110.3905 
G00 Z2.0000  
G00 X32.7210 Y113.3245 
G01 Z-0.2000 F200   
G01 X32.6449 Y113.5083 F500   
G01 X32.5344 Y113.6737 
G01 X32.3937 Y113.8144 
G01 X32.2283 Y113.9249 
G01 X32.0445 Y114.0010 
G01 X31.8495 Y114.0398 
G01 X31.6505 Y114.0398 
G01 X31.4555 Y114.0010 
G01 X31.2717 Y113.9249 
G01 X31.1063 Y113.8144 
G01 X30.9656 Y113.6737 
G01 X30.8551 Y113.5083 
G01 X30.7790 Y113.3245 
G01 X30.7402 Y113.1295 
G01 X30.7402 Y112.9305 
G01 X30.7790 Y112.7355 
G01 X30.8551 Y112.5517 
G01 X30.9656 Y112.3863 
G01 X31.1063 Y112.2456 
G01 X31.2717 Y112.1351 
G01 X31.4555 Y112.0590 
G01 X31.6505 Y112.0202 
G01 X31.8495 Y112.0202 
G01 X32.0445 Y112.0590 
G01 X32.2283 Y112.1351 
G01 X32.3937 Y112.2456 
G01 X32.5344 Y112.3863 
G01 X32.6449 Y112.5517 
G01 X32.7210 Y112.7355 
G01 X32.7404 Y112.8330 
G01 X34.1400 Y112.8330 
G01 X34.1400 Y112.4661 
G01 X34.1507 Y112.4403 
G01 X34.1703 Y112.4207 
G01 X34.1961 Y112.4100 
G01 X35.2239 Y112.4100 
G01 X35.2497 Y112.4207 
G01 X35.2693 Y112.4403 
G01 X35.2800 Y112.4661 
G01 X35.2800 Y113.5939 
G01 X35.2693 Y113.6197 
G01 X35.2497 Y113.6393 
G01 X35.2239 Y113.6500 
G01 X34.1961 Y113.6500 
G01 X34.1703 Y113.6393 
G01 X34.1507 Y113.6197 
G01 X34.1400 Y113.5939 
G01 X34.1400 Y113.2270 
G01 X32.7404 Y113.2270 
G01 X32.7210 Y113.3245 
G00 Z2.0000  
G00 X46.7298 Y92.2917 
G01 Z-0.2000 F200   
G01 X46.7298 Y93.1283 F500   
G01 X46.1383 Y93.7198 
G01 X45.9170 Y93.7198 
G01 X45.9170 Y94.2402 
G01 X46.1383 Y94.2402 
G01 X46.7298 Y94.8317 
G01 X46.7298 Y95.6683 
G01 X46.1383 Y96.2598 
G01 X45.9170 Y96.2598 
G01 X45.9170 Y96.7802 
G01 X46.1383 Y96.7802 
G01 X46.7298 Y97.3717 
G01 X46.7298 Y98.2083 
G01 X46.1383 Y98.7998 
G01 X45.3017 Y98.7998 
G01 X44.7102 Y98.2083 
G01 X44.7102 Y97.3717 
G01 X45.3017 Y96.7802 
G01 X45.5230 Y96.7802 
G01 X45.5230 Y96.7170 
G01 X36.3920 Y96.7170 
G01 X36.3920 Y96.8646 
G01 X35.9046 Y97.3520 
G01 X35.2154 Y97.3520 
G01 X34.7280 Y96.8646 
G01 X34.7280 Y96.1754 
G01 X35.2154 Y95.6880 
G01 X35.9046 Y95.6880 
G01 X36.3920 Y96.1754 
G01 X36.3920 Y96.3230 
G01 X45.5230 Y96.3230 
G01 X45.5230 Y96.2598 
G01 X45.3017 Y96.2598 
G01 X44.7102 Y95.6683 
G01 X44.7102 Y94.8317 
G01 X45.3017 Y94.2402 
G01 X45.5230 Y94.2402 
G01 X45.5230 Y93.7198 
G01 X45.3017 Y93.7198 
G01 X44.7102 Y93.1283 
G01 X44.7102 Y92.2917 
G01 X45.3017 Y91.7002 
G01 X46.1383 Y91.7002 
G01 X46.7298 Y92.2917 
G00 Z2.0000  
G00 X20.2158 Y107.2160 
G01 Z-0.2000 F200   
G01 X20.1690 Y107.2285 F500   
G01 X20.1270 Y107.2528 
G01 X20.0928 Y107.2870 
G01 X20.0685 Y107.3290 
G01 X20.0560 Y107.3758 
G01 X20.0560 Y107.6300 
G01 X20.1700 Y107.6300 
G01 X20.1700 Y107.3861 
G01 X20.1807 Y107.3603 
G01 X20.2003 Y107.3407 
G01 X20.2261 Y107.3300 
G01 X20.4200 Y107.3300 
G01 X20.4200 Y107.2160 
G01 X20.2158 Y107.2160 
G00 Z2.0000  
G00 X15.7182 Y115.2731 
G01 Z-0.2000 F200   
G01 X15.6444 Y115.1281 F500   
G01 X15.5487 Y114.9964 
G01 X15.4336 Y114.8813 
G01 X15.3019 Y114.7856 
G01 X15.1569 Y114.7118 
G01 X15.0840 Y114.6881 
G01 X15.0840 Y114.8084 
G01 X15.1958 Y114.8547 
G01 X15.3465 Y114.9554 
G01 X15.4746 Y115.0835 
G01 X15.5753 Y115.2342 
G01 X15.6216 Y115.3460 
G01 X15.7419 Y115.3460 
G01 X15.7182 Y115.2731 
G00 Z2.0000  
G00 X14.0864 Y114.8813 
G01 Z-0.2000 F200   
G01 X13.9713 Y114.9964 F500   
G01 X13.8756 Y115.1281 
G01 X13.8018 Y115.2731 
G01 X13.7781 Y115.3460 
G01 X13.8984 Y115.3460 
G01 X13.9447 Y115.2342 
G01 X14.0454 Y115.0835 
G01 X14.1735 Y114.9554 
G01 X14.3242 Y114.8547 
G01 X14.4360 Y114.8084 
G01 X14.4360 Y114.6881 
G01 X14.3631 Y114.7118 
G01 X14.2181 Y114.7856 
G01 X14.0864 Y114.8813 
G00 Z2.0000  
G00 X6.9167  Y77.5760 
G01 Z-0.2000 F200   
G01 X6.1060  Y78.3867 F500   
G01 X6.1060  Y78.6360 
G01 X6.2200  Y78.6360 
G01 X6.2200  Y78.4340 
G01 X6.9640  Y77.6900 
G01 X7.1660  Y77.6900 
G01 X7.1660  Y77.5760 
G01 X6.9167  Y77.5760 
G00 Z2.0000  
G00 X8.7600  Y78.4340 
G01 Z-0.2000 F200   
G01 X8.7600  Y78.6360 F500   
G01 X8.8740  Y78.6360 
G01 X8.8740  Y78.3867 
G01 X8.0633  Y77.5760 
G01 X7.8140  Y77.5760 
G01 X7.8140  Y77.6900 
G01 X8.0160  Y77.6900 
G01 X8.7600  Y78.4340 
G00 Z2.0000  
G00 X8.7600  Y79.4860 
G01 Z-0.2000 F200   
G01 X8.0160  Y80.2300 F500   
G01 X7.8140  Y80.2300 
G01 X7.8140  Y80.3440 
G01 X8.0633  Y80.3440 
G01 X8.8740  Y79.5333 
G01 X8.8740  Y79.2840 
G01 X8.7600  Y79.2840 
G01 X8.7600  Y79.4860 
G00 Z2.0000  
G00 X6.1060  Y79.5333 
G01 Z-0.2000 F200   
G01 X6.9167  Y80.3440 F500   
G01 X7.1660  Y80.3440 
G01 X7.1660  Y80.2300 
G01 X6.9640  Y80.2300 
G01 X6.2200  Y79.4860 
G01 X6.2200  Y79.2840 
G01 X6.1060  Y79.2840 
G01 X6.1060  Y79.5333 
G00 Z2.0000  
G00 X32.6063 Y77.4300 
G01 Z-0.2000 F200   
G01 X31.7100 Y78.3263 F500   
G01 X31.7100 Y79.5937 
G01 X32.6063 Y80.4900 
G01 X33.8737 Y80.4900 
G01 X34.7700 Y79.5937 
G01 X34.7700 Y78.3263 
G01 X33.8737 Y77.4300 
G01 X32.6063 Y77.4300 
G00 Z2.0000  
G00 X34.5100 Y78.4340 
G01 Z-0.2000 F200   
G01 X34.5100 Y79.4860 F500   
G01 X33.7660 Y80.2300 
G01 X32.7140 Y80.2300 
G01 X31.9700 Y79.4860 
G01 X31.9700 Y78.4340 
G01 X32.7140 Y77.6900 
G01 X33.7660 Y77.6900 
G01 X34.5100 Y78.4340 
G00 Z2.0000  
G00 X32.5063 Y17.2300 
G01 Z-0.2000 F200   
G01 X31.6100 Y18.1263 F500   
G01 X31.6100 Y19.3937 
G01 X32.5063 Y20.2900 
G01 X33.7737 Y20.2900 
G01 X34.6700 Y19.3937 
G01 X34.6700 Y18.1263 
G01 X33.7737 Y17.2300 
G01 X32.5063 Y17.2300 
G00 Z2.0000  
G00 X34.4100 Y18.2340 
G01 Z-0.2000 F200   
G01 X34.4100 Y19.2860 F500   
G01 X33.6660 Y20.0300 
G01 X32.6140 Y20.0300 
G01 X31.8700 Y19.2860 
G01 X31.8700 Y18.2340 
G01 X32.6140 Y17.4900 
G01 X33.6660 Y17.4900 
G01 X34.4100 Y18.2340 
G00 Z2.0000  
G00 X39.2484 Y5.4496  
G01 Z-0.2000 F200   
G01 X38.8147 Y5.2700  F500   
G01 X38.3453 Y5.2700  
G01 X37.9116 Y5.4496  
G01 X37.5796 Y5.7816  
G01 X37.4000 Y6.2153  
G01 X37.4000 Y6.6847  
G01 X37.5796 Y7.1184  
G01 X37.9116 Y7.4504  
G01 X38.3453 Y7.6300  
G01 X38.8147 Y7.6300  
G01 X39.2484 Y7.4504  
G01 X39.5804 Y7.1184  
G01 X39.7600 Y6.6847  
G01 X39.7600 Y6.2153  
G01 X39.5804 Y5.7816  
G01 X39.2484 Y5.4496  
G00 Z2.0000  
G00 X39.5000 Y6.3594  
G01 Z-0.2000 F200   
G01 X39.5000 Y6.5406  F500   
G01 X39.4646 Y6.7184  
G01 X39.3953 Y6.8858  
G01 X39.2946 Y7.0365  
G01 X39.1665 Y7.1646  
G01 X39.0158 Y7.2653  
G01 X38.8484 Y7.3346  
G01 X38.6706 Y7.3700  
G01 X38.4894 Y7.3700  
G01 X38.3116 Y7.3346  
G01 X38.1442 Y7.2653  
G01 X37.9935 Y7.1646  
G01 X37.8654 Y7.0365  
G01 X37.7647 Y6.8858  
G01 X37.6954 Y6.7184  
G01 X37.6600 Y6.5406  
G01 X37.6600 Y6.3594  
G01 X37.6954 Y6.1816  
G01 X37.7647 Y6.0142  
G01 X37.8654 Y5.8635  
G01 X37.9935 Y5.7354  
G01 X38.1442 Y5.6347  
G01 X38.3116 Y5.5654  
G01 X38.4894 Y5.5300  
G01 X38.6706 Y5.5300  
G01 X38.8484 Y5.5654  
G01 X39.0158 Y5.6347  
G01 X39.1665 Y5.7354  
G01 X39.2946 Y5.8635  
G01 X39.3953 Y6.0142  
G01 X39.4646 Y6.1816  
G01 X39.5000 Y6.3594  
G00 Z2.0000  
G00 X18.9284 Y114.6696 
G01 Z-0.2000 F200   
G01 X18.4947 Y114.4900 F500   
G01 X18.0253 Y114.4900 
G01 X17.5916 Y114.6696 
G01 X17.3310 Y114.9302 
G01 X17.2784 Y114.9828 
G01 X17.2756 Y114.9856 
G01 X17.2032 Y115.0156 
G01 X17.1248 Y115.0156 
G01 X17.0524 Y114.9856 
G01 X16.9978 Y114.9311 
G01 X16.9670 Y114.8578 
G01 X16.9670 Y81.1891 
G01 X16.8974 Y81.0211 
G01 X16.7689 Y80.8926 
G01 X16.7134 Y80.8372 
G01 X10.5474 Y74.6711 
G01 X10.4189 Y74.5426 
G01 X10.2509 Y74.4730 
G01 X3.7191  Y74.4730 
G01 X3.5511  Y74.5426 
G01 X3.4226  Y74.6711 
G01 X3.3530  Y74.8391 
G01 X3.3530  Y108.0409 
G01 X3.4226  Y108.2089 
G01 X5.0420  Y109.8283 
G01 X5.0629  Y109.8443 
G01 X5.0695  Y109.8558 
G01 X5.0789  Y109.8651 
G01 X5.0889  Y109.8894 
G01 X5.1020  Y109.9122 
G01 X5.1038  Y109.9253 
G01 X5.1088  Y109.9376 
G01 X5.1088  Y109.9638 
G01 X5.1123  Y109.9899 
G01 X5.1088  Y110.0027 
G01 X5.1088  Y110.0159 
G01 X5.0988  Y110.0402 
G01 X5.0920  Y110.0656 
G01 X5.0839  Y110.0761 
G01 X5.0789  Y110.0883 
G01 X5.0603  Y110.1069 
G01 X5.0443  Y110.1278 
G01 X5.0328  Y110.1344 
G01 X5.0234  Y110.1437 
G01 X4.9992  Y110.1538 
G01 X4.9764  Y110.1669 
G01 X4.9633  Y110.1687 
G01 X4.9510  Y110.1737 
G01 X4.9248  Y110.1737 
G01 X3.6781  Y110.3379 
G01 X3.6658  Y110.3429 
G01 X2.3839  Y110.8739 
G01 X2.3716  Y110.8790 
G01 X1.2732  Y111.7219 
G01 X1.2546  Y111.7405 
G01 X1.2423  Y111.7455 
G01 X1.2318  Y111.7536 
G01 X1.2065  Y111.7604 
G01 X1.1822  Y111.7705 
G01 X1.1689  Y111.7705 
G01 X1.1561  Y111.7739 
G01 X1.1301  Y111.7705 
G01 X1.1038  Y111.7705 
G01 X1.0916  Y111.7654 
G01 X1.0784  Y111.7637 
G01 X1.0557  Y111.7505 
G01 X1.0314  Y111.7405 
G01 X1.0220  Y111.7311 
G01 X1.0106  Y111.7245 
G01 X0.9946  Y111.7036 
G01 X0.9760  Y111.6851 
G01 X0.9709  Y111.6728 
G01 X0.9629  Y111.6623 
G01 X0.9561  Y111.6369 
G01 X0.9460  Y111.6127 
G01 X0.9460  Y111.5994 
G01 X0.9426  Y111.5866 
G01 X0.9460  Y111.5606 
G01 X0.9460  Y9.0894  
G01 X0.9426  Y9.0634  
G01 X0.9460  Y9.0506  
G01 X0.9460  Y9.0373  
G01 X0.9561  Y9.0131  
G01 X0.9629  Y8.9877  
G01 X0.9709  Y8.9772  
G01 X0.9760  Y8.9649  
G01 X0.9946  Y8.9464  
G01 X1.0106  Y8.9255  
G01 X1.0220  Y8.9189  
G01 X1.0314  Y8.9095  
G01 X1.0557  Y8.8995  
G01 X1.0784  Y8.8863  
G01 X1.0916  Y8.8846  
G01 X1.1038  Y8.8795  
G01 X1.1301  Y8.8795  
G01 X1.1561  Y8.8761  
G01 X1.1689  Y8.8795  
G01 X1.1822  Y8.8795  
G01 X1.2065  Y8.8896  
G01 X1.2318  Y8.8964  
G01 X1.2423  Y8.9045  
G01 X1.2546  Y8.9095  
G01 X1.2732  Y8.9281  
G01 X2.3716  Y9.7710  
G01 X2.3839  Y9.7761  
G01 X3.6658  Y10.3071 
G01 X3.6781  Y10.3121 
G01 X5.0800  Y10.4967 
G01 X6.4819  Y10.3121 
G01 X6.4942  Y10.3071 
G01 X7.7761  Y9.7761  
G01 X7.7884  Y9.7710  
G01 X8.9102  Y8.9102  
G01 X9.7710  Y7.7883  
G01 X9.7761  Y7.7761  
G01 X10.3071 Y6.4942  
G01 X10.3121 Y6.4819  
G01 X10.4967 Y5.0800  
G01 X10.3121 Y3.6781  
G01 X10.3071 Y3.6658  
G01 X9.7761  Y2.3839  
G01 X9.7710  Y2.3716  
G01 X8.9281  Y1.2732  
G01 X8.9095  Y1.2546  
G01 X8.9045  Y1.2423  
G01 X8.8964  Y1.2318  
G01 X8.8896  Y1.2065  
G01 X8.8795  Y1.1822  
G01 X8.8795  Y1.1689  
G01 X8.8761  Y1.1561  
G01 X8.8795  Y1.1301  
G01 X8.8795  Y1.1038  
G01 X8.8846  Y1.0916  
G01 X8.8863  Y1.0784  
G01 X8.8995  Y1.0557  
G01 X8.9095  Y1.0314  
G01 X8.9189  Y1.0220  
G01 X8.9255  Y1.0106  
G01 X8.9464  Y0.9946  
G01 X8.9649  Y0.9760  
G01 X8.9772  Y0.9709  
G01 X8.9877  Y0.9629  
G01 X9.0131  Y0.9561  
G01 X9.0373  Y0.9460  
G01 X9.0506  Y0.9460  
G01 X9.0634  Y0.9426  
G01 X9.0894  Y0.9460  
G01 X44.2506 Y0.9460  
G01 X44.2766 Y0.9426  
G01 X44.2894 Y0.9460  
G01 X44.3027 Y0.9460  
G01 X44.3269 Y0.9561  
G01 X44.3523 Y0.9629  
G01 X44.3628 Y0.9709  
G01 X44.3751 Y0.9760  
G01 X44.3936 Y0.9946  
G01 X44.4145 Y1.0106  
G01 X44.4211 Y1.0220  
G01 X44.4305 Y1.0314  
G01 X44.4405 Y1.0557  
G01 X44.4537 Y1.0784  
G01 X44.4554 Y1.0916  
G01 X44.4605 Y1.1038  
G01 X44.4605 Y1.1301  
G01 X44.4639 Y1.1561  
G01 X44.4605 Y1.1689  
G01 X44.4605 Y1.1822  
G01 X44.4504 Y1.2065  
G01 X44.4436 Y1.2318  
G01 X44.4355 Y1.2423  
G01 X44.4305 Y1.2546  
G01 X44.4119 Y1.2732  
G01 X43.5690 Y2.3716  
G01 X43.0329 Y3.6658  
G01 X43.0279 Y3.6781  
G01 X42.8433 Y5.0800  
G01 X43.0279 Y6.4819  
G01 X43.0329 Y6.4942  
G01 X43.5639 Y7.7761  
G01 X43.5690 Y7.7883  
G01 X44.4298 Y8.9102  
G01 X45.5516 Y9.7710  
G01 X45.5639 Y9.7761  
G01 X46.8458 Y10.3071 
G01 X46.8581 Y10.3121 
G01 X48.2600 Y10.4967 
G01 X49.6619 Y10.3121 
G01 X49.6742 Y10.3071 
G01 X50.9561 Y9.7761  
G01 X50.9684 Y9.7710  
G01 X52.0468 Y8.9434  
G01 X52.0654 Y8.9249  
G01 X52.0776 Y8.9198  
G01 X52.0882 Y8.9117  
G01 X52.1135 Y8.9049  
G01 X52.1378 Y8.8949  
G01 X52.1511 Y8.8949  
G01 X52.1639 Y8.8914  
G01 X52.1899 Y8.8949  
G01 X52.2162 Y8.8949  
G01 X52.2284 Y8.8999  
G01 X52.2416 Y8.9017  
G01 X52.2643 Y8.9148  
G01 X52.2886 Y8.9249  
G01 X52.2980 Y8.9342  
G01 X52.3094 Y8.9409  
G01 X52.3254 Y8.9617  
G01 X52.3440 Y8.9803  
G01 X52.3491 Y8.9925  
G01 X52.3571 Y9.0030  
G01 X52.3639 Y9.0284  
G01 X52.3740 Y9.0527  
G01 X52.3740 Y9.0659  
G01 X52.3774 Y9.0787  
G01 X52.3740 Y9.1048  
G01 X52.3740 Y111.5452 
G01 X52.3774 Y111.5713 
G01 X52.3740 Y111.5841 
G01 X52.3740 Y111.5973 
G01 X52.3639 Y111.6216 
G01 X52.3571 Y111.6470 
G01 X52.3491 Y111.6575 
G01 X52.3440 Y111.6697 
G01 X52.3254 Y111.6883 
G01 X52.3094 Y111.7091 
G01 X52.2980 Y111.7158 
G01 X52.2886 Y111.7251 
G01 X52.2643 Y111.7352 
G01 X52.2416 Y111.7483 
G01 X52.2284 Y111.7500 
G01 X52.2162 Y111.7551 
G01 X52.1899 Y111.7551 
G01 X52.1639 Y111.7585 
G01 X52.1511 Y111.7551 
G01 X52.1378 Y111.7551 
G01 X52.1135 Y111.7451 
G01 X52.0882 Y111.7383 
G01 X52.0776 Y111.7302 
G01 X52.0654 Y111.7251 
G01 X52.0468 Y111.7066 
G01 X50.9683 Y110.8790 
G01 X50.9561 Y110.8739 
G01 X49.6742 Y110.3429 
G01 X49.6619 Y110.3379 
G01 X48.2600 Y110.1533 
G01 X46.8581 Y110.3379 
G01 X46.8458 Y110.3429 
G01 X45.5639 Y110.8739 
G01 X45.5516 Y110.8790 
G01 X44.4298 Y111.7398 
G01 X43.5690 Y112.8616 
G01 X43.5639 Y112.8739 
G01 X43.0329 Y114.1558 
G01 X43.0279 Y114.1681 
G01 X42.8433 Y115.5700 
G01 X43.0279 Y116.9719 
G01 X43.0329 Y116.9842 
G01 X43.5639 Y118.2661 
G01 X43.5690 Y118.2783 
G01 X44.1587 Y119.0468 
G01 X44.1773 Y119.0654 
G01 X44.1823 Y119.0776 
G01 X44.1904 Y119.0882 
G01 X44.1972 Y119.1135 
G01 X44.2072 Y119.1378 
G01 X44.2072 Y119.1511 
G01 X44.2107 Y119.1639 
G01 X44.2072 Y119.1899 
G01 X44.2072 Y119.2162 
G01 X44.2022 Y119.2284 
G01 X44.2004 Y119.2416 
G01 X44.1873 Y119.2643 
G01 X44.1773 Y119.2886 
G01 X44.1679 Y119.2980 
G01 X44.1613 Y119.3094 
G01 X44.1404 Y119.3254 
G01 X44.1218 Y119.3440 
G01 X44.1096 Y119.3491 
G01 X44.0991 Y119.3571 
G01 X44.0737 Y119.3639 
G01 X44.0494 Y119.3740 
G01 X44.0362 Y119.3740 
G01 X44.0234 Y119.3774 
G01 X43.9973 Y119.3740 
G01 X9.3427  Y119.3740 
G01 X9.3166  Y119.3774 
G01 X9.3038  Y119.3740 
G01 X9.2906  Y119.3740 
G01 X9.2663  Y119.3639 
G01 X9.2409  Y119.3571 
G01 X9.2304  Y119.3491 
G01 X9.2182  Y119.3440 
G01 X9.1996  Y119.3254 
G01 X9.1787  Y119.3094 
G01 X9.1721  Y119.2980 
G01 X9.1627  Y119.2886 
G01 X9.1527  Y119.2643 
G01 X9.1395  Y119.2416 
G01 X9.1378  Y119.2284 
G01 X9.1327  Y119.2162 
G01 X9.1327  Y119.1899 
G01 X9.1293  Y119.1639 
G01 X9.1327  Y119.1511 
G01 X9.1327  Y119.1378 
G01 X9.1428  Y119.1135 
G01 X9.1496  Y119.0882 
G01 X9.1577  Y119.0776 
G01 X9.1627  Y119.0654 
G01 X9.1813  Y119.0468 
G01 X9.7710  Y118.2783 
G01 X9.7761  Y118.2661 
G01 X10.3071 Y116.9842 
G01 X10.3121 Y116.9719 
G01 X10.4763 Y115.7252 
G01 X10.4763 Y115.6990 
G01 X10.4813 Y115.6867 
G01 X10.4831 Y115.6736 
G01 X10.4962 Y115.6508 
G01 X10.5062 Y115.6266 
G01 X10.5156 Y115.6172 
G01 X10.5222 Y115.6057 
G01 X10.5431 Y115.5897 
G01 X10.5617 Y115.5711 
G01 X10.5739 Y115.5661 
G01 X10.5844 Y115.5580 
G01 X10.6098 Y115.5512 
G01 X10.6341 Y115.5412 
G01 X10.6473 Y115.5412 
G01 X10.6601 Y115.5377 
G01 X10.6862 Y115.5412 
G01 X10.7124 Y115.5412 
G01 X10.7247 Y115.5462 
G01 X10.7378 Y115.5480 
G01 X10.7606 Y115.5611 
G01 X10.7849 Y115.5711 
G01 X10.7942 Y115.5805 
G01 X10.8057 Y115.5871 
G01 X10.8217 Y115.6080 
G01 X12.3126 Y117.0989 
G01 X12.4411 Y117.2274 
G01 X12.6091 Y117.2970 
G01 X16.6009 Y117.2970 
G01 X16.7689 Y117.2274 
G01 X16.8974 Y117.0989 
G01 X16.9670 Y116.9309 
G01 X16.9670 Y116.4822 
G01 X16.9961 Y116.4118 
G01 X17.0524 Y116.3544 
G01 X17.1248 Y116.3244 
G01 X17.2032 Y116.3244 
G01 X17.2735 Y116.3535 
G01 X17.3310 Y116.4098 
G01 X17.5916 Y116.6704 
G01 X18.0253 Y116.8500 
G01 X18.4947 Y116.8500 
G01 X18.9284 Y116.6704 
G01 X19.2604 Y116.3384 
G01 X19.4400 Y115.9047 
G01 X19.4400 Y115.4353 
G01 X19.2604 Y115.0016 
G01 X18.9284 Y114.6696 
G00 Z2.0000  
G00 X19.1800 Y115.5794 
G01 Z-0.2000 F200   
G01 X19.1800 Y115.7606 F500   
G01 X19.1446 Y115.9384 
G01 X19.0753 Y116.1058 
G01 X18.9746 Y116.2565 
G01 X18.8465 Y116.3846 
G01 X18.6958 Y116.4853 
G01 X18.5284 Y116.5546 
G01 X18.3506 Y116.5900 
G01 X18.1694 Y116.5900 
G01 X17.9916 Y116.5546 
G01 X17.8242 Y116.4853 
G01 X17.6735 Y116.3846 
G01 X17.5454 Y116.2565 
G01 X17.4447 Y116.1058 
G01 X17.3754 Y115.9384 
G01 X17.3400 Y115.7606 
G01 X17.3400 Y115.5794 
G01 X17.3754 Y115.4016 
G01 X17.4447 Y115.2342 
G01 X17.5454 Y115.0835 
G01 X17.6735 Y114.9554 
G01 X17.8242 Y114.8547 
G01 X17.9916 Y114.7854 
G01 X18.1694 Y114.7500 
G01 X18.3506 Y114.7500 
G01 X18.5284 Y114.7854 
G01 X18.6958 Y114.8547 
G01 X18.8465 Y114.9554 
G01 X18.9746 Y115.0835 
G01 X19.0753 Y115.2342 
G01 X19.1446 Y115.4016 
G01 X19.1800 Y115.5794 
G00 Z2.0000  
G00 X13.8018 Y116.0669 
G01 Z-0.2000 F200   
G01 X13.8756 Y116.2119 F500   
G01 X13.9713 Y116.3436 
G01 X14.0864 Y116.4587 
G01 X14.2181 Y116.5544 
G01 X14.3631 Y116.6282 
G01 X14.4085 Y116.6430 
G01 X14.4165 Y116.6430 
G01 X14.4455 Y116.6550 
G01 X14.4754 Y116.6648 
G01 X14.4815 Y116.6699 
G01 X14.4889 Y116.6730 
G01 X14.5111 Y116.6952 
G01 X14.5350 Y116.7156 
G01 X14.5387 Y116.7228 
G01 X14.5443 Y116.7284 
G01 X14.5563 Y116.7575 
G01 X14.5706 Y116.7855 
G01 X14.5712 Y116.7934 
G01 X14.5743 Y116.8008 
G01 X14.5743 Y116.8322 
G01 X14.5768 Y116.8636 
G01 X14.5743 Y116.8712 
G01 X14.5743 Y116.8792 
G01 X14.5623 Y116.9082 
G01 X14.5525 Y116.9381 
G01 X14.5474 Y116.9442 
G01 X14.5443 Y116.9516 
G01 X14.5221 Y116.9738 
G01 X14.5017 Y116.9977 
G01 X14.4945 Y117.0014 
G01 X14.4889 Y117.0070 
G01 X14.4598 Y117.0190 
G01 X14.4318 Y117.0333 
G01 X14.4239 Y117.0339 
G01 X14.4165 Y117.0370 
G01 X14.3851 Y117.0370 
G01 X14.3537 Y117.0395 
G01 X14.3461 Y117.0370 
G01 X12.6608 Y117.0370 
G01 X12.5884 Y117.0070 
G01 X12.5330 Y116.9516 
G01 X10.4539 Y114.8724 
G01 X10.4330 Y114.8565 
G01 X10.4264 Y114.8450 
G01 X10.4170 Y114.8356 
G01 X10.4070 Y114.8113 
G01 X10.3938 Y114.7886 
G01 X10.3921 Y114.7754 
G01 X10.3870 Y114.7632 
G01 X10.3870 Y114.7369 
G01 X10.3121 Y114.1681 
G01 X10.3071 Y114.1558 
G01 X9.7761  Y112.8739 
G01 X9.7710  Y112.8616 
G01 X8.9102  Y111.7398 
G01 X7.7883  Y110.8790 
G01 X7.7761  Y110.8739 
G01 X6.4942  Y110.3429 
G01 X6.4819  Y110.3379 
G01 X5.9131  Y110.2630 
G01 X5.8868  Y110.2630 
G01 X5.8746  Y110.2579 
G01 X5.8614  Y110.2562 
G01 X5.8387  Y110.2430 
G01 X5.8144  Y110.2330 
G01 X5.8050  Y110.2236 
G01 X5.7935  Y110.2170 
G01 X5.7775  Y110.1961 
G01 X3.6430  Y108.0616 
G01 X3.6130  Y107.9892 
G01 X3.6130  Y74.8908 
G01 X3.6430  Y74.8184 
G01 X3.6984  Y74.7630 
G01 X3.7708  Y74.7330 
G01 X10.1992 Y74.7330 
G01 X10.2716 Y74.7630 
G01 X10.3270 Y74.8184 
G01 X16.6770 Y81.1684 
G01 X16.7070 Y81.2408 
G01 X16.7070 Y116.8792 
G01 X16.6770 Y116.9516 
G01 X16.6216 Y117.0070 
G01 X16.5492 Y117.0370 
G01 X15.1739 Y117.0370 
G01 X15.1663 Y117.0395 
G01 X15.1349 Y117.0370 
G01 X15.1035 Y117.0370 
G01 X15.0961 Y117.0339 
G01 X15.0882 Y117.0333 
G01 X15.0601 Y117.0190 
G01 X15.0311 Y117.0070 
G01 X15.0255 Y117.0014 
G01 X15.0183 Y116.9977 
G01 X14.9979 Y116.9738 
G01 X14.9757 Y116.9516 
G01 X14.9726 Y116.9442 
G01 X14.9674 Y116.9381 
G01 X14.9577 Y116.9082 
G01 X14.9457 Y116.8792 
G01 X14.9457 Y116.8712 
G01 X14.9432 Y116.8636 
G01 X14.9457 Y116.8322 
G01 X14.9457 Y116.8008 
G01 X14.9488 Y116.7934 
G01 X14.9494 Y116.7855 
G01 X14.9637 Y116.7574 
G01 X14.9757 Y116.7284 
G01 X14.9813 Y116.7228 
G01 X14.9850 Y116.7156 
G01 X15.0089 Y116.6952 
G01 X15.0311 Y116.6730 
G01 X15.0385 Y116.6699 
G01 X15.0446 Y116.6648 
G01 X15.0745 Y116.6550 
G01 X15.1035 Y116.6430 
G01 X15.1115 Y116.6430 
G01 X15.1569 Y116.6282 
G01 X15.3019 Y116.5544 
G01 X15.4336 Y116.4587 
G01 X15.5487 Y116.3436 
G01 X15.6444 Y116.2119 
G01 X15.7182 Y116.0669 
G01 X15.7419 Y115.9940 
G01 X15.6216 Y115.9940 
G01 X15.5753 Y116.1058 
G01 X15.4746 Y116.2565 
G01 X15.3465 Y116.3846 
G01 X15.1958 Y116.4853 
G01 X15.0284 Y116.5546 
G01 X14.8506 Y116.5900 
G01 X14.6694 Y116.5900 
G01 X14.4916 Y116.5546 
G01 X14.3242 Y116.4853 
G01 X14.1735 Y116.3846 
G01 X14.0454 Y116.2565 
G01 X13.9447 Y116.1058 
G01 X13.8984 Y115.9940 
G01 X13.7781 Y115.9940 
G01 X13.8018 Y116.0669 
G00 Z2.0000  
G82 X39.2400 Y78.9600 Z-2.0000 F200   R2.0000  P1.000000
G82 X33.2400 Y78.9600 
G82 X45.2400 Y78.9600 
G82 X7.4900  Y78.9600 
G82 X27.2400 Y78.9600 
G82 X33.1400 Y18.7600 
G82 X45.8900 Y18.7600 
G82 X39.3700 Y113.2078 
G82 X39.3700 Y110.3122 
G82 X26.6700 Y107.9500 
G82 X26.6700 Y110.4900 
G82 X26.6700 Y113.0300 
G82 X31.7500 Y107.9500 
G82 X31.7500 Y110.4900 
G82 X31.7500 Y113.0300 
G82 X48.2600 Y92.7100 
G82 X45.7200 Y92.7100 
G82 X48.2600 Y95.2500 
G82 X45.7200 Y95.2500 
G82 X48.2600 Y97.7900 
G82 X45.7200 Y97.7900 
G82 X48.2600 Y100.3300 
G82 X45.7200 Y100.3300 
G82 X48.2600 Y102.8700 
G82 X45.7200 Y102.8700 
G82 X20.3200 Y99.0600 
G82 X20.3200 Y101.6000 
G82 X35.5600 Y93.9800 
G82 X20.3200 Y96.5200 
G82 X35.5600 Y101.6000 
G82 X35.5600 Y99.0600 
G82 X35.5600 Y96.5200 
G82 X20.3200 Y93.9800 
G82 X5.0800  Y115.5700 
G82 X48.2600 Y115.5700 
G82 X5.0800  Y5.0800  
G82 X48.2600 Y5.0800  
G82 X38.5800 Y6.4500  
G82 X35.0800 Y6.4500  
G82 X18.2600 Y115.6700 
G82 X14.7600 Y115.6700 
G00 Z15.0000 
M05
M02
